X:1
T:Ein feste Burg (3vv-2,CLIV)
T:Michael Praetorius
T:Ein feste Burg (3vv-2,CLIV)
C:Michael Praetorius
%%score [ 1 2 3 ]
L:1/8
Q:1/4=120
M:4/2
K:F
V:1 treble nm="Soprano 1" snm="S 1"
V:2 treble nm="Soprano 2" snm="S 2"
V:3 bass nm="Bass" snm="B"
V:1
 f4 f2 f2 c4 d4- | d2 f4 e2 d2 d2 c4 | z2 f2 e4 d4 c2 d2 | B2 A2 G4 F4 z2 f2 | e4 d4 c4 d2 B2- | %5
w: Ein fes- te Burg ist|_ un- * * ser Gott,|ein gu- te Wehr und|Waf- * * fen, ein|gu- te Wehr und Waf-|
w: Er hilft uns frei aus|_ al- * * ler Not,|die uns jetzt hat be-|trof- * * fen, die|uns jetzt hat be- trof-|
 B2 A2 G4 F4 z2 f2 | e4 d4 A4 d4 | c6 c4 A2 G4 |1 A8 z8 :|1 A4 z2 F2 A6 B2 || c4 F4 A6 B2 | %11
w: * * * fen, ein|gu- te Wehr und|Waf- fen, und Waf-|fen.|fen. Der alt, _|_ Der alt _|
w: * * * fen, die|uns jetzt hat be-|trof- fen, be- trof-|fen.|fen. * * *||
 c4 d8 c4- | c4 =B4 c8 | F4 c4 d4 e4 | f8 z4 e4 | f12 e4 | d8 c8 | d2 d4 c2 d3 c B2 B2 | A8 z4 f4 | %19
w: _ bö- *|* se Feind,|mit Ernst ers jetzt|meint. Groß|Macht und|viel List,|sein grau- sam Rüs- * * tung|ist. Auf|
w: ||||||||
 e4 d4 c4 A4 | B4 A4 G8 | F4 G4 c2 d2 c4 | d4 B6 A2 G4 | F4 z4 z2 f2 e4 | d4 c4 d2 B4 A2 | %25
w: Erdn ist nicht seins-|glei- * *|chen, Auf Erdn ist nicht|seins- glei- * *|chen, Auf Erdn|ist nicht seins- glei- *|
w: ||||||
 G4 F4 G4 A4 | z2 f2 e2 d2 A2 d2 c4- | c2 BA G4 F4 f4 | e4 d8 c4 | d4 B6 A2 A4- | A2 G2 G6 F2 F4- | %31
w: * * * chen,|Auf Erdn ist nicht seins- glei-|* * * * chen, Auf|Erdn ist nicht|seins- glei- * *||
w: ||||||
 F4 E2 D2 E8 | F16 |] %33
w: |chen.|
w: ||
V:2
 z8 z4 f4 | f2 f2 c4 d2 f4 e2 | d2 d2 c4 z2 f2 e2 d2- | d2 c2 d2 B4 AG A4 | G4 F4 z4 f4 | %5
w: Ein|fes- te Burg ist un- *|* ser Gott, ein gu- te|_ Wehr und Waf- * * *|* fen, ein|
w: Er|hilft uns frei aus al- *|* ler Not, die uns jetzt|_ hat be- trof- * * *|* fen, die|
 g2 f4 e2 d2 c4 d2 | G4 F8 B4- | B4 A4 G2 F4 E2 |1 F8 z8 :|1 F8 z4 F4 || A6 B2 c4 F4 | %11
w: gut, ein gu- te Wehr und|Waf- * *||fen.|fen. Der|alt, _ _ Der|
w: uns, die uns jetzt hat be-|trof- * *||fen.|fen. *||
 A4 B2 A2 G6 G2 | A4 G4 E3 F G4 | A4 G2 A2 B8 | c4 d4 G4 c4- | c4 d6 c2 c4- | c4 =B4 c4 z2 G2 | %17
w: alt bö- se Feind, mit|Ernst ers jetzt _ _|meint. _ _ _|Groß Macht Groß Macht|_ und _ _|_ viel List, sein|
w: ||||||
 B6 A2 G2 F2 G2 G2 | F6 c4 G2 A4 | A4 f4 e4 d4- | d4 c2 f2 e4 d4 | c4 z2 B2 A6 G2 | %22
w: grau- sam Rüs- * * tung|ist. Auf Erdn ist|nicht, Auf Erdn ist|_ nicht, Auf Erdn ist|nicht, Auf Erdn ist|
w: |||||
 A4 G2 F2 G2 F2 E4 | F2 c2 B4 A4 G2 A2 | F2 G4 F2 B2 d2 d2 c2 | B4 c2 f2 e2 d2 c4- | %26
w: nicht _ _ _ seins- glei-|chen, Auf Erdn ist nicht seins-|glei- chen, Auf Erdn ist nicht seins-|glei- chen, Auf Erdn ist nicht|
w: ||||
 c2 d2 G2 F4 B4 A2 | G2 F4 E2 F3 G A4 | z4 f8 e4 | d8 c4 d4 | B8 A8 | G16 | A16 |] %33
w: _ seins- glei- * * *|* * * chen, _ _|Auf Erdn|ist nicht seins-|glei- *||chen.|
w: |||||||
V:3
 z16 | z16 | z16 | z8 z2 F,2 F,2 F,2 | C,4 D,2 F,4 E,2 D,2 D,2 | C,8 z2 F,2 E,2 D,2 | %6
w: |||Ein fes- te|Burg ist un- * * ser|Gott, ein gu- te|
w: |||Er hilft uns|frei aus al- * * ler|Not, die uns jetzt|
 C,4 D,6 C,2 B,,4 | C,16 |1 F,8 z8 :|1 F,16 || z16 | z4 D,4 E,8 | F,4 G,4 C,8 | z4 C,4 G,8 | %14
w: Wehr und _ _|Waf-|fen.|fen.||Der alt|bö- se Feind,|mit Ernst|
w: hat be- * *|trof-|fen.|fen.|||||
 A,4 B,4 C2 B,2 A,2 G,2 | F,2 E,2 D,2 E,2 F,4 C,4 | G,8 C,8 | B,,2 B,,4 F,2 B,4 G,4 | %18
w: ers jetzt meint. _ _ _|_ _ _ Groß Macht und|viel List,|sein grau- sam Rüs- tung|
w: ||||
 D,4 F,4 E,4 D,4 | ^C,4 z2 D,2 A,4 F,4 | G,2 D,2 F,4 C,2 C2 B,4 | A,4 G,4 A,2 F,4 E,2 | %22
w: ist. Auf Erdn _|ist Auf Erdn ist|nicht seins- glei- chen, Auf Erdn|ist nicht seins- glei- *|
w: ||||
 D,8 C,6 C2 | A,4 G,4 F,4 z4 | z2 B,2 A,4 G,4 F,4 | z8 z4 F,4 | E,2 D,2 C,2 D,4 B,,2 C,4- | %27
w: * chen, Auf|Erdn ist nicht,|Auf Erdn ist nicht,|Auf|Erdn ist nicht seins- glei- chen,|
w: |||||
 C,4 C,4 D,6 D2 | ^C4 D4 A,6 G,2 | ^F,4 G,4 A,4 =F,4 | G,8 A,6 B,2 | C8 C,8 | F,16 |] %33
w: _ Auf Erdn ist|nicht seins- glei- *|* * * chen,|seins- glei- *||chen.|
w: ||||||

